src/16/actions/view-calendar-wedding-anniversary.svg

<svg xmlns="http://www.w3.org/2000/svg" viewBox="0 0 16 16"><path d="M2 2v12h12V2h-2v2h-2V2H6v2H4V2H2zm1 3h10v8H3V5zm4 1.5A2.5 2.5 0 0 0 4.5 9 2.5 2.5 0 0 0 7 11.5a2.5 2.5 0 0 0 1.002-.21A2.5 2.5 0 0 0 9 11.5 2.5 2.5 0 0 0 11.5 9 2.5 2.5 0 0 0 9 6.5a2.5 2.5 0 0 0-1.002.21A2.5 2.5 0 0 0 7 6.5zm0 1a1.5 1.5 0 0 1 .002 0A2.5 2.5 0 0 0 6.5 9a2.5 2.5 0 0 0 .504 1.5 1.5 1.5 0 0 1-.004 0A1.5 1.5 0 0 1 5.5 9 1.5 1.5 0 0 1 7 7.5zm1.996 0A1.5 1.5 0 0 1 9 7.5 1.5 1.5 0 0 1 10.5 9 1.5 1.5 0 0 1 9 10.5a1.5 1.5 0 0 1-.002 0A2.5 2.5 0 0 0 9.5 9a2.5 2.5 0 0 0-.504-1.5zM8 7.885A1.5 1.5 0 0 1 8.5 9a1.5 1.5 0 0 1-.5 1.115A1.5 1.5 0 0 1 7.5 9 1.5 1.5 0 0 1 8 7.885z" fill="currentColor" color="#5d656b"/></svg>

<svg xmlns="http://www.w3.org/2000/svg" viewBox="0 0 16 16">
  <defs id="defs3051">
    <style type="text/css" id="current-color-scheme">
      .ColorScheme-Text {
        color:#5d656b;
      }
      </style>
  </defs>
 <path style="fill:currentColor;fill-opacity:1;stroke:none" 
       d="M 2 2 L 2 14 L 14 14 L 14 2 L 12 2 L 12 4 L 10 4 L 10 2 L 6 2 L 6 4 L 4 4 L 4 2 L 2 2 z M 3 5 L 13 5 L 13 13 L 3 13 L 3 5 z M 7 6.5 A 2.5 2.5 0 0 0 4.5 9 A 2.5 2.5 0 0 0 7 11.5 A 2.5 2.5 0 0 0 8.0019531 11.289062 A 2.5 2.5 0 0 0 9 11.5 A 2.5 2.5 0 0 0 11.5 9 A 2.5 2.5 0 0 0 9 6.5 A 2.5 2.5 0 0 0 7.9980469 6.7109375 A 2.5 2.5 0 0 0 7 6.5 z M 7 7.5 A 1.5 1.5 0 0 1 7.0019531 7.5 A 2.5 2.5 0 0 0 6.5 9 A 2.5 2.5 0 0 0 7.0039062 10.5 A 1.5 1.5 0 0 1 7 10.5 A 1.5 1.5 0 0 1 5.5 9 A 1.5 1.5 0 0 1 7 7.5 z M 8.9960938 7.5 A 1.5 1.5 0 0 1 9 7.5 A 1.5 1.5 0 0 1 10.5 9 A 1.5 1.5 0 0 1 9 10.5 A 1.5 1.5 0 0 1 8.9980469 10.5 A 2.5 2.5 0 0 0 9.5 9 A 2.5 2.5 0 0 0 8.9960938 7.5 z M 8 7.8847656 A 1.5 1.5 0 0 1 8.5 9 A 1.5 1.5 0 0 1 8 10.115234 A 1.5 1.5 0 0 1 7.5 9 A 1.5 1.5 0 0 1 8 7.8847656 z "
     class="ColorScheme-Text"
     />
</svg>
